X:5
T:To Rosie Instr:Flute
C:Achazia Songweaver
N:made 15 mars 2009
Q:1/4=105
V:1
M:4/4
L:1/8
K:C
z8 |z8 |z8 |z8 |z8 |z8 |z8 |z8 |z8 |E8 |D8 |E8- |E8 |E8 |D8 |E8- |E8 |E4 E^F G2 |G4 E^F G2 |^F4 D4- |D8 |E4 E^F G2 |G4 E^F G2 |^F4 [z4D4-] |[z7D8] z |z z2 z2 z2 B/c/ |d2 B2 c2 B2 |G4 z3 B/c/ |d2 Bd e2 d2 |
B4 z3 B/c/ |d2 B2 c2 B2 |G4 z3 B/c/ |d2 Bd e2 d2 |E8 |D8 |E3 G G4- |G8 |E8 |D8 |E4 G4- |G8 |E4 E^F G2 |G4 E^F G2 |^F4 D4- |D8 |E4 E^F G2 |G4 E^F G2 |^F4 A4- |A4 z z2 B/c/ |d2 B2 c2 B2 |G4 z3 B/c/ |d2 Bd e2 d2 |
B4 z3 B/c/ |d2 B2 c2 B2 |G4 z4 |]
